X:1
T:Title
%%score { ( 1 5 6 ) | ( 2 3 4 ) }
L:1/8
Q:1/4=100
M:4/4
K:F
V:1 treble nm="Grand Piano"
V:5 treble 
V:6 treble 
V:2 bass 
V:3 bass 
V:4 bass 
V:1
 [A,F]2 [A,F]>G [CA]2 [DB]2 | [DB]2 [CA]2 [CA]3 A | [CA]2 [B,G]2 [B,G]2 [DB]2 | [DB]4 [CA]4 | %4
w: W.~E.~Burnett * * * *||||
 [A,F]2 [A,F]>G [CA]2 [DB]2 | [DB]2 [CA]2 [CA]3 F | [CA]2 [A,F]2 [CA]2 [B,G]2 | [F,A,F]6 z [_EA] | %8
w: ||||
 [DB]2 [DB]2 [Ec]3 B | [DB]2 [CA]2 [CA]3 A | [CA]2 [B,G]2 [B,G]2 [DB]2 | [DB]4 [CA]4 | %12
w: ||||
 [A,F]2 [A,F]>G [CA]2 [DB]2 | [DB]2 [CA]2 [CA]4 | [CA]2 F2 [CA]2 G2 | [F,A,F]6 z2 | %16
w: ||||
 [Ac]4 [FA]2 d2 | [Ac]4 [FA]4 | [Ac][GB] [GB]>[^FA] [GB]2 [EBd]2 | [Bd][Ac] [Ac]>[_A=B] [=Ac]4 | %20
w: ||||
 [Ac]4 [FA]2 d2 | [Ac]4 [FA]4 | [Ac]2 A2 [CFA]2 [B,EG]2 | [A,F]6 z2 |] %24
w: ||||
V:2
 z2 F,2 z4 | z4 z2 F,2 | C,,2 C,2 C,2 C,2 | F,,2 F,2 F,2 F,2 | z2 F,2 z4 | z4 z2 F,2 | %6
 C,,2 C,2 C,,2 C,2 | F,,6 z C | B,,2 F,2 F,2 z D | z4 z2 F,2 | C,,2 C,2 C,2 C,2 | %11
 F,,2 F,2 F,2 F,2 | z2 F,2 z4 | F,,2 F,2 F,2 F,2 | z2 A,2 z2 B,2 | F,,6 z2 | %16
 z4 z2[K:treble] B2[K:bass] | F,F, F,>F, F, .F,3 | [C,C][C,C] [C,C]>[C,C] [C,C]2 C,2 | %19
 [F,F][F,F] [F,F]>[F,F] [F,F]4 | z4 z2[K:treble] B2[K:bass] | F,F, F,>F, F, .F,3 | z2 F2 C,2 C,2 | %23
 F,6 z2 |] %24
V:3
 F,,2 z z/ B,/ F,,2 F,2 | F,,2 F,2 F,2 z C | x8 | x8 | F,,2 z z/ B,/ F,,2 F,2 | F,,2 F,2 F,2 z A, | %6
 x8 | x8 | z4 z2 F,2 | F,,2 F,2 F,2 z C | x8 | x8 | F,,2 z z/ B,/ F,,2 F,2 | x8 | C,8 | x8 | %16
 F,2 F,>F, .F,2[K:treble] z[K:bass] F, | x8 | x8 | x8 | [F,C]2 F,>F, .F,2[K:treble] z[K:bass] F, | %21
 x8 | [C,C]4 z4 | x8 |] %24
V:4
 x8 | x8 | x8 | x8 | x8 | x8 | x8 | x8 | x8 | x8 | x8 | x8 | x8 | x8 | z4 C,,4 | x8 | %16
 z4 z .F,3[K:treble][K:bass] | x8 | x8 | x8 | z4 z .F,3[K:treble][K:bass] | x8 | x8 | x8 |] %24
V:5
 x8 | x8 | x8 | x8 | x8 | x8 | x8 | x8 | x8 | x8 | x8 | x8 | x8 | x8 | x8 | x8 | C2 C>C .C2 z C | %17
 CC C>C C .C3 | x8 | x8 | z2 C>C .C2 z C | CC C>C C .C3 | x8 | x8 |] %24
V:6
 x8 | x8 | x8 | x8 | x8 | x8 | x8 | x8 | x8 | x8 | x8 | x8 | x8 | x8 | x8 | x8 | z4 z .C3 | x8 | %18
 x8 | x8 | z4 z .C3 | x8 | x8 | x8 |] %24

